X: 1
T: The Girl I Left Behind Me
R: march
M: C
L: 1/4
K: G
 "Em"e>d BG | "D"A/B/A/G/ ED | "G"GG G/A/B/c/ | d2 B2 |
  "Em"e/f/e/d/ BG | "D"A/B/A/G/ ed- | dde f/e/ |1"G"g>ag2:|2"G"g>ag ||
|: g/a/ | "G"bg "C"eg | "G"d/e/d/c/Bg/a/ | "G"bg"C"eg | "D7"a>g ag/a/ |
"G"bg "C"eg | "G"d/e/d/c/ Bd-| "D"dd e/e/f/e/ |1"G"g2 g :|2"G"g2g2|]
